Resources/Public/Images/Icons/Ionicons/ios-basketball-outline.svg

<svg xmlns="http://www.w3.org/2000/svg" width="32" height="32" viewBox="0 0 512 512"><path d="M256 48C141.137 48 48 141.136 48 256s93.137 208 208 208c114.871 0 208-93.138 208-208S370.871 48 256 48zm190.664 208l-.002.145c-22.315-1.721-43.989-6.972-64.62-15.699a206.906 206.906 0 0 1-49.479-29.634 527.032 527.032 0 0 0 52.824-94.715c37.658 34.853 61.277 84.669 61.277 139.903zm-74.058-150.739c-.28.676-.55 1.354-.835 2.028-13.908 32.883-31.062 63.956-51.286 92.987a215.409 215.409 0 0 1-4.563-4.413c-19.107-19.107-34.107-41.354-44.583-66.12-8.697-20.563-13.933-42.163-15.671-64.401.111 0 .221-.004.332-.004 43.884-.001 84.347 14.911 116.606 39.923zM239.675 66.044c4.431 58.126 31.044 110.041 71.391 147.312a513.394 513.394 0 0 1-30.319 36.965c-47.554-50.032-104.815-90.746-168.767-119.132 31.636-36.456 76.853-60.814 127.695-65.145zm41.012 207.796c36.229 40.67 65.48 86.438 87.185 136.453-25.4 18.467-55.51 30.829-88.162 34.898-2.272-47.816-19.521-91.707-47.179-127.071a531.537 531.537 0 0 0 48.156-44.28zm-18.648-3.801a518.699 518.699 0 0 1-39.778 35.87c-38.737-42.885-93.831-70.706-155.45-73.635 4.07-32.646 16.432-62.75 34.896-88.146 59.195 25.688 112.445 61.947 158.332 107.833a523.63 523.63 0 0 1 9.812 10.089 524.704 524.704 0 0 1-7.812 7.989zM65.508 248.23c25.238 1.145 49.436 6.797 71.45 16.109 24.767 10.476 47.013 25.476 66.12 44.583a212.54 212.54 0 0 1 6.584 6.895c-31.414 23.915-65.427 44.049-101.708 60.182C81.322 343.205 65.336 301.437 65.336 256c0-2.604.068-5.191.172-7.77zm53.559 140.296a527.776 527.776 0 0 0 100.914-60.521 206.935 206.935 0 0 1 27.68 47.037c9.614 22.729 15.013 46.724 16.114 71.45-2.58.104-5.17.172-7.775.172-53.683 0-102.249-22.311-136.933-58.138zm261.743 11.495c-22.489-50.671-52.72-97.14-89.191-137.909a530.62 530.62 0 0 0 31.556-38.336c34.171 27.342 76.521 44.885 122.801 48.363-4.29 50.919-28.665 96.208-65.166 127.882z"/></svg>

<?xml version="1.0" encoding="utf-8"?>
<!-- Generator: Adobe Illustrator 16.2.1, SVG Export Plug-In . SVG Version: 6.00 Build 0)  -->
<!DOCTYPE svg PUBLIC "-//W3C//DTD SVG 1.1//EN" "http://www.w3.org/Graphics/SVG/1.1/DTD/svg11.dtd">
<svg version="1.1" id="Layer_1" xmlns="http://www.w3.org/2000/svg" xmlns:xlink="http://www.w3.org/1999/xlink" x="0px" y="0px"
	 width="32px" height="32px" viewBox="0 0 512 512" enable-background="new 0 0 512 512" xml:space="preserve">
<path d="M256,48C141.137,48,48,141.136,48,256s93.137,208,208,208c114.871,0,208-93.138,208-208S370.871,48,256,48z M446.664,256
	c0,0.048-0.002,0.097-0.002,0.145c-22.315-1.721-43.989-6.972-64.62-15.699c-17.888-7.566-34.453-17.505-49.479-29.634
	c20.69-29.501,38.442-61.212,52.824-94.715C423.045,150.95,446.664,200.766,446.664,256z M372.606,105.261
	c-0.28,0.676-0.55,1.354-0.835,2.028c-13.908,32.883-31.062,63.956-51.286,92.987c-1.538-1.449-3.063-2.914-4.563-4.413
	c-19.107-19.107-34.107-41.354-44.583-66.12c-8.697-20.563-13.933-42.163-15.671-64.401c0.111,0,0.221-0.004,0.332-0.004
	C299.884,65.337,340.347,80.249,372.606,105.261z M239.675,66.044c4.431,58.126,31.044,110.041,71.391,147.312
	c-9.495,12.749-19.609,25.076-30.319,36.965c-47.554-50.032-104.815-90.746-168.767-119.132
	C143.616,94.733,188.833,70.375,239.675,66.044z M280.687,273.84c36.229,40.67,65.48,86.438,87.185,136.453
	c-25.4,18.467-55.51,30.829-88.162,34.898c-2.272-47.816-19.521-91.707-47.179-127.071
	C249.483,304.357,265.568,289.567,280.687,273.84z M262.039,270.039c-12.704,12.703-25.977,24.662-39.778,35.87
	c-38.737-42.885-93.831-70.706-155.45-73.635c4.07-32.646,16.432-62.75,34.896-88.146c59.195,25.688,112.445,61.947,158.332,107.833
	c3.323,3.323,6.59,6.689,9.812,10.089C267.277,264.736,264.677,267.401,262.039,270.039z M65.508,248.23
	c25.238,1.145,49.436,6.797,71.45,16.109c24.767,10.476,47.013,25.476,66.12,44.583c2.254,2.254,4.445,4.555,6.584,6.895
	c-31.414,23.915-65.427,44.049-101.708,60.182C81.322,343.205,65.336,301.437,65.336,256
	C65.336,253.396,65.404,250.809,65.508,248.23z M119.067,388.526c35.988-16.434,69.81-36.787,100.914-60.521
	c11.249,14.372,20.522,30.115,27.68,47.037c9.614,22.729,15.013,46.724,16.114,71.45c-2.58,0.104-5.17,0.172-7.775,0.172
	C202.317,446.664,153.751,424.353,119.067,388.526z M380.81,400.021c-22.489-50.671-52.72-97.14-89.191-137.909
	c11.101-12.269,21.634-25.061,31.556-38.336c34.171,27.342,76.521,44.885,122.801,48.363
	C441.686,323.058,417.311,368.347,380.81,400.021z"/>
</svg>
